!!!COM: Gomółka, Mikołaj
!!!CDT: ~1535-after 1591
!!!OTL: Zachowaj mię
!!!OTL@LAT: Salvum me fac
!!!AGn: Motet; Psalm
!!!SCn: Gom2012
!!!SCn: Gom2012
!!!voices: 4
**kern	**kern	**kern	**kern
*staff4	*staff3	*staff2	*staff1
*Ivox	*Ivox	*Ivox	*Ivox
*I"Bassus	*I"Tenor	*I"Altus	*I"Cantus
*I'B	*I'T	*I'A	*I'C
*clefF4	*clefGv2	*clefG2	*clefG2
*k[b-]	*k[b-]	*k[b-]	*k[b-]
*M2/1	*M2/1	*M2/1	*M2/1
*met(C|)	*met(C|)	*met(C|)	*met(C|)
=1-	=1-	=1-	=1-
2r	2r	2r	2r
2D	2d	2f#	2a
1D	1d	1f#	1a
=2	=2	=2	=2
1G	1d	1g	1b-
2A	2c#	2e	2a
2G	[2d	2g	[2dd
=3	=3	=3	=3
1B-	2d]	2.f	2dd]
.	2d	.	2dd
.	.	4g	.
2A	2e	2a	2cc#i
[2A	[2c#	[2a	[2ee
=4	=4	=4	=4
2A]	2c#]	2a]	2ee]
1D	2d	1a	1ff
.	1d	.	.
2G	.	2g	2dd
=5	=5	=5	=5
2.G	4B-	2.b-	1dd
.	4c	.	.
.	1d	.	.
4F	.	4a	.
[1E	.	1g	1gg
.	4c#i	.	.
.	4Bn	.	.
=6	=6	=6	=6
1E]	4c#i	1g	2ee
.	2d	.	.
.	.	.	4ff#
.	4c#	.	4ee
2D	2d	2a	2ff#
2D	2d	2f	2a
=7	=7	=7	=7
2A	2c	2e	2a
2F	2f	2cc	2a
2G	4e	2b-	4g
.	4d	.	4f
2B-	2d	2g	4e
.	.	.	4d
=8	=8	=8	=8
1A	2d	2.a	1e
.	2c#	.	.
.	.	4g	.
2D	2d	2f	2d
[2D	[2d	[2f	[2a
=9	=9	=9	=9
2D]	2d]	2f]	2a]
1G	2.d	1g	1bn
.	4e	.	.
2F	2f	2a	2cc
=10	=10	=10	=10
1B-	1d	2.b-	1.dd
.	.	4a	.
1B-	1d	4g	.
.	.	4f	.
.	.	2g	4cc#
.	.	.	4bn
=11	=11	=11	=11
2A	2e	2a	2cc#
2A	2e	2a	2ee
2F	2.a	2cc	2.ff
2F	.	2cc	.
.	4g	.	4ee
=12	=12	=12	=12
2B-	2f	2b-	2dd
2G	2g	2b-	1dd
1A	1e	2.a	.
.	.	.	2cc#i
.	.	4g	.
=13	=13	=13	=13
2D	1d	1f#	2a
[2d	.	.	2a
4d]	2f	2a	2dd
4c	.	.	.
2B-	2d	2b-	2dd
=14	=14	=14	=14
2c	2e	2g	2cc
2F	1f	1a	2cc
1c	.	.	1cc
.	2e	2g	.
=15	=15	=15	=15
2F	2f	2a	2cc
1c	1e	1g	2cc
.	.	.	2g
2G	[2d	2g	2b-
=16	=16	=16	=16
2B-	4d]	2.d	2.f
.	4c	.	.
2B-	2B-	.	.
.	.	4e	4g
2F	2c	2f	2a
2C	2c	2e	2g
=17	=17	=17	=17
2G	2G	2d	2.b-
1G	2.B-	1g	.
.	.	.	4cc
.	.	.	4dd
.	4c	.	4ee
2D	2d	4f	2ff
.	.	4g	.
=18	=18	=18	=18
2A	2c	2a	2ee
2F#	2d	2a	2dd
[1G	[1B-	1g	[1dd
=19	=19	=19	=19
1G]	1B-]	1g	2dd]
.	.	.	4cc#i
.	.	.	4bn
1A	2.A	1e	2cc#
.	.	.	2a
.	4Bn	.	.
=20	=20	=20	=20
0AA	0c#	0e	0a
==	==	==	==
*-	*-	*-	*-
!!!CNT: Polish
!!!OCY: Poland
!!!LYR: Jan Kochanowski (1530-1584/08/22)
!!!GTL: Melodiae na Psałterz Polski
!!!EFL: 12/150
!!!PPR: Łazarz Andrysowicz
!!!PPP: Kraków
!!!PDT: 1580
!!!YEC: 2015 Marcin Konik
!!!ENC: Marcin Konik
!!!END: 2015/03/06
!!!EED: Marcin Konik
!!!EEV: 2015/03/06
!!!ONB: Translated from MusicXML and edited on 2015/03/06 by Marcin Konik
!!!CharacterEncoding: utf-8
!!muse2ps: i2I150v85,85,85,150Q16
!!title: @{OTL}, @{GTL}, ed. @{ENC}
